X: 96
T: No_56_Dream_of_"Spirit_Buffalo".krn
N: Derived from No_56_Dream_of_"Spirit_Buffalo".krn
%%abc-version 2.0
%%abcx-abcm2ps-target-version 5.9.1 (29 Sep 2008)
%%abc-creator hum2abc beta
%%abcx-conversion-date 2019/03/15 08:35:45
%%humdrum-veritas 2955749014
%%humdrum-veritas-data 2679783180
%%linebreak <none>
%%barnumbers 0
L: 1/8
M: 2/4
K: F clef=bass
[K:clef=bass][M:2/4]E3/E/ E3/C/ | 
E3/C/C2 ]|:  
E3/E/ E3/C/ | 
C3/A,/G,2 | 
B,3/G,/!fermata!G,2 | 
F,3/C,/ C,3/G,/ | 
G,3/F,/!fermata!F,2 | 
D,3/C,/C,2 | 
D,3/C,/ C,C, | 
C,4 | 
C,2z2 :|]  



